icons/svg/cloud-print-outline.svg

﻿<?xml version="1.0" encoding="utf-8"?>
<!DOCTYPE svg PUBLIC "-//W3C//DTD SVG 1.1//EN" "http://www.w3.org/Graphics/SVG/1.1/DTD/svg11.dtd">
<svg xmlns="http://www.w3.org/2000/svg" xmlns:xlink="http://www.w3.org/1999/xlink" version="1.1" baseProfile="full" width="24" height="24" viewBox="0 0 24.00 24.00" enable-background="new 0 0 24.00 24.00" xml:space="preserve">
	<path fill="#000000" fill-opacity="1" stroke-width="0.2" stroke-linejoin="round" d="M 19,16C 20.657,16 22,14.657 22,13C 22,11.343 20.657,10 19,10L 17.5,10L 17.5,9.50002C 17.5,6.46202 15.037,4.00002 12,4.00002C 9.483,4.00002 7.366,5.69301 6.712,8.00002L 6,8.00002C 3.79101,8.00002 2,9.791 2,12C 2,14.209 3.79101,16 6,16L 6,11L 18,11L 18,16L 19,16 Z M 19.355,8.03604C 21.947,8.22102 24,10.36 24,13C 24,15.762 21.761,18 19,18L 18,18L 18,22L 6,22L 6,18C 2.68599,18 0,15.314 0,12C 0,8.90502 2.34301,6.36002 5.351,6.03604C 6.60299,3.63902 9.108,2.00004 12,2.00004C 15.641,2.00004 18.674,4.595 19.355,8.03604 Z M 8,13L 8,20L 16,20L 16,13L 8,13 Z M 9,18L 15,18L 15,19L 9,19L 9,18 Z M 15,17L 9,17L 9,16L 15,16L 15,17 Z M 9,14L 15,14L 15,15L 9,15L 9,14 Z "/>
</svg>

<svg xmlns="http://www.w3.org/2000/svg" version="1.1" baseProfile="full" width="24" height="24" viewBox="0 0 24.00 24.00" xml:space="preserve"><path fill="#000" fill-opacity="1" stroke-width=".2" stroke-linejoin="round" d="M19 16c1.657 0 3-1.343 3-3s-1.343-3-3-3h-1.5v-.5C17.5 6.462 15.037 4 12 4 9.483 4 7.366 5.693 6.712 8H6c-2.21 0-4 1.79-4 4s1.79 4 4 4v-5h12v5h1zm.355-7.964C21.947 8.22 24 10.36 24 13c0 2.762-2.24 5-5 5h-1v4H6v-4c-3.314 0-6-2.686-6-6 0-3.095 2.343-5.64 5.35-5.964C6.604 3.64 9.11 2 12 2c3.64 0 6.674 2.595 7.355 6.036zM8 13v7h8v-7H8zm1 5h6v1H9v-1zm6-1H9v-1h6v1zm-6-3h6v1H9v-1z"/></svg>
